src/icon/category/category-budget/icon_category-budget_xxl_white.svg

<svg width="48px" height="48px" viewBox="0 0 48 48" version="1.1" xmlns="http://www.w3.org/2000/svg"><g transform="translate(-1159.000000, -1002.000000)" stroke="none" stroke-width="1" fill="none" fill-rule="evenodd"><g transform="translate(1159.000000, 1002.000000)"><rect x="0" y="0" width="48" height="48"/><path d="M45.1101211,20.9483 C44.5921211,21.7253 39.2781211,25.0363 34.5681211,24.6783 C36.8971211,27.6643 41.5351211,26.6523 42.8261211,26.1783 C39.8521211,30.8853 36.1811211,31.6863 32.8811211,31.7773 L32.6021211,31.7813 C30.5741211,31.7813 28.4541211,31.2093 28.4321211,31.2033 L27.5411211,30.9603 L27.2271211,31.8293 C26.3661211,34.2243 28.7431211,35.8423 30.8391211,37.2673 C32.5231211,38.4143 34.2661211,39.5993 34.1621211,40.8493 C34.0901211,41.7053 32.8601211,42.4553 31.2901211,41.6103 C31.2901211,41.6103 29.8561211,44.6643 27.4611211,42.3133 C26.9191211,43.9343 25.1271211,44.9763 23.9991211,45.0593 C22.8711211,44.9763 21.0791211,43.9343 20.5371211,42.3133 C18.1411211,44.6643 16.7081211,41.6103 16.7081211,41.6103 C15.1371211,42.4553 13.9071211,41.7053 13.8361211,40.8493 C13.7311211,39.5993 15.4741211,38.4143 17.1591211,37.2673 C19.2551211,35.8423 21.6311211,34.2243 20.7701211,31.8293 L20.4571211,30.9603 L19.5651211,31.2033 C19.5441211,31.2093 17.4231211,31.7813 15.3951211,31.7813 L15.1171211,31.7773 C11.8161211,31.6863 8.14512108,30.8853 5.17212108,26.1783 C6.46312108,26.6523 11.1001211,27.6643 13.4291211,24.6783 C8.71912108,25.0363 3.40512108,21.7253 2.88712108,20.9483 C1.87612108,18.7583 0.755121083,14.4223 1.79212108,10.1403 C3.45412108,14.5593 6.82912108,15.8513 8.95412108,15.8093 C7.66312108,14.0393 4.73812108,9.6733 4.37712108,7.1303 C4.17712108,5.7233 4.89012108,4.5363 5.55412108,3.7653 C6.64212108,6.4243 8.45712108,8.9783 10.9551211,11.3923 C11.2171211,11.6503 11.4881211,11.9063 11.7691211,12.1603 C12.1091211,12.4663 12.4301211,12.7453 12.7411211,13.0083 C12.7451211,13.0113 12.7501211,13.0153 12.7541211,13.0183 C13.0181211,13.2423 13.2771211,13.4563 13.5281211,13.6543 C13.8471211,13.9083 13.8951211,14.2243 13.9431211,14.9993 C13.9801211,15.6023 14.0221211,16.2863 14.3871211,16.9483 C14.9501211,17.9663 16.0421211,18.9403 17.2981211,18.7423 C18.4981211,18.5523 19.1801211,17.2033 19.5911211,16.1923 C20.7591211,13.3203 20.6731211,9.9233 19.3991211,7.1033 C18.9341211,6.0753 17.8031211,5.7603 16.7541211,5.7973 L15.4841211,5.2013 C14.8321211,4.8953 14.2281211,4.7273 13.6861211,4.7003 C13.8071211,4.6923 13.9461211,4.6873 14.1021211,4.6863 C14.7761211,4.6853 15.3121211,4.3413 15.7851211,4.0363 C16.1491211,3.8023 16.4931211,3.5813 16.8181211,3.5813 L16.8191211,3.5813 C17.2901211,3.5963 17.9081211,3.7843 18.5621211,3.9833 C19.0801211,4.1403 19.6371211,4.3093 20.2211211,4.4263 L20.5191211,4.8853 C21.2661211,6.0333 21.5011211,7.5993 21.8891211,8.8933 C22.2731211,10.1713 22.6571211,11.4493 23.0411211,12.7263 L23.9991211,15.9123 L24.9571211,12.7263 C24.9571211,12.7263 27.0051211,5.9123 27.0951211,5.6013 C27.1351211,5.4643 27.3301211,5.1133 27.4781211,4.8853 L27.7761211,4.4263 C28.3601211,4.3093 28.9171211,4.1403 29.4351211,3.9833 C30.0891211,3.7843 30.7081211,3.5963 31.2011211,3.5813 C32.1681211,3.5813 32.8501211,4.6843 33.8951211,4.6863 C34.0521211,4.6873 34.1901211,4.6923 34.3121211,4.7003 C33.7691211,4.7273 33.1661211,4.8953 32.5131211,5.2013 L31.2491211,5.7973 C30.1981211,5.7603 29.0641211,6.0713 28.5981211,7.1033 C26.7161211,11.2693 27.8271211,15.5603 29.0321211,17.4273 C30.3331211,19.4413 32.5431211,18.8783 33.6101211,16.9483 C33.9751211,16.2863 34.0171211,15.6023 34.0541211,14.9993 C34.1021211,14.2243 34.1501211,13.9083 34.4691211,13.6543 C34.7191211,13.4573 34.9771211,13.2433 35.2421211,13.0193 L35.2421211,13.0203 C35.2471211,13.0163 35.2521211,13.0113 35.2561211,13.0093 C35.5661211,12.7453 35.8871211,12.4663 36.2281211,12.1603 L36.2271211,12.1603 C36.2271211,12.1603 36.2281211,12.1603 36.2281211,12.1593 L36.2281211,12.1603 C36.2471211,12.1423 36.3241211,12.0693 36.3241211,12.0693 C39.1981211,9.4583 41.2531211,6.6743 42.4431211,3.7653 C43.1071211,4.5363 43.8201211,5.7233 43.6211211,7.1303 C43.2591211,9.6733 40.3351211,14.0393 39.0441211,15.8093 C41.1691211,15.8513 44.5441211,14.5593 46.2061211,10.1403 C47.2431211,14.4223 46.1221211,18.7583 45.1101211,20.9483 M41.4271211,14.1933 C41.4271211,14.1933 44.2131211,10.0773 44.6111211,7.2703 C45.0581211,4.1173 42.0131211,2.0003 42.0131211,2.0003 C40.9791211,5.3843 38.8291211,8.3273 36.1101211,10.8953 C35.9261211,11.0693 35.5581211,11.4173 35.5581211,11.4173 C35.0061211,11.9143 34.4401211,12.4023 33.8491211,12.8703 C32.6591211,13.8123 33.3581211,15.3373 32.7351211,16.4643 C32.2191211,17.3963 31.0891211,18.2633 30.1991211,17.3173 C29.3751211,16.4413 29.0011211,15.0603 28.7891211,13.9143 C28.4791211,12.2413 28.5441211,10.4863 29.0181211,8.8503 C29.2541211,8.0393 29.4771211,7.1153 30.3811211,6.8693 C31.1591211,6.6573 32.0311211,6.8733 32.7971211,7.0413 C34.0771211,7.3223 33.3271211,8.3253 33.3271211,8.3253 C33.7311211,8.3393 33.9921211,8.0233 34.0831211,7.6483 C34.2661211,6.8893 32.9381211,6.1063 32.9381211,6.1063 C33.7131211,5.7443 35.1841211,5.3053 35.6621211,6.3563 C36.9561211,4.0973 35.4541211,3.6903 33.8971211,3.6863 C33.0731211,3.6853 32.3101211,2.5813 31.2011211,2.5813 C29.2931211,2.6423 27.6431211,3.8293 25.7391211,3.5203 C25.7391211,3.5203 25.9401211,4.1733 26.6401211,4.3393 C26.6401211,4.3393 26.2461211,4.9433 26.1351211,5.3213 C26.0451211,5.6313 23.9991211,12.4383 23.9991211,12.4383 C23.9991211,12.4383 21.9521211,5.6313 21.8621211,5.3213 C21.7511211,4.9433 21.3571211,4.3393 21.3571211,4.3393 C22.0571211,4.1733 22.2581211,3.5203 22.2581211,3.5203 C20.3541211,3.8283 18.7041211,2.6423 16.8521211,2.5823 C15.6871211,2.5813 14.9241211,3.6853 14.1001211,3.6863 C12.5441211,3.6903 11.0421211,4.0973 12.3361211,6.3563 C12.8131211,5.3053 14.2851211,5.7443 15.0591211,6.1063 C15.0591211,6.1063 13.7311211,6.8893 13.9151211,7.6483 C14.0061211,8.0233 14.2661211,8.3393 14.6711211,8.3253 C14.6711211,8.3253 13.9211211,7.3223 15.2001211,7.0413 C16.1181211,6.8403 17.9681211,6.3653 18.4881211,7.5143 C19.6131211,10.0063 19.7071211,13.0113 18.7571211,15.5763 C18.5121211,16.2383 18.1391211,17.2023 17.4981211,17.5943 C16.6071211,18.1383 15.6681211,17.1963 15.2621211,16.4643 C14.6391211,15.3373 15.3391211,13.8123 14.1481211,12.8703 C13.5571211,12.4023 12.9911211,11.9143 12.4391211,11.4173 C11.6241211,10.6823 10.8811211,9.9023 10.1761211,9.1003 C8.27712108,7.0123 6.79112108,4.6403 5.98412108,2.0003 C5.98412108,2.0003 2.93912108,4.1173 3.38612108,7.2703 C3.78512108,10.0773 7.92987892,15.3067 7.5,15 C7.07012108,14.6933 2.35412108,12.1963 2.06112108,6.6253 C-0.875878917,12.1253 0.655121083,18.5003 1.99812108,21.4013 C2.52012108,22.5293 8.37312108,25.5263 10.9981211,25.4013 C10.9981211,25.4013 6.93012108,27.0043 2.72812108,23.6513 C4.26612108,27.2013 6.67712108,30.5303 10.4111211,31.9393 C13.4001211,33.0673 16.7761211,32.9723 19.8291211,32.1683 C20.6871211,34.5543 16.5511211,36.3963 15.1101211,37.4873 C14.1581211,38.2083 13.0421211,39.1343 12.8581211,40.3913 C12.5771211,42.3113 14.5691211,43.4373 16.2461211,42.8383 C16.9391211,44.0863 18.8101211,44.8443 20.1631211,43.8383 C21.6061211,46.8223 26.3901211,46.8233 27.8351211,43.8383 C29.1871211,44.8443 31.0581211,44.0863 31.7521211,42.8383 C33.3961211,43.4263 35.3661211,42.3583 35.1501211,40.4673 C35.0031211,39.1753 33.8551211,38.2203 32.8871211,37.4873 C31.4461211,36.3963 27.3101211,34.5543 28.1691211,32.1683 C31.2181211,32.9763 34.5991211,33.0663 37.5861211,31.9393 C41.3201211,30.5303 43.7311211,27.2003 45.2691211,23.6513 C41.0671211,27.0043 37.0001211,25.4013 37.0001211,25.4013 C39.6251211,25.5263 45.4771211,22.5293 46.0001211,21.4013 C47.3421211,18.5003 48.8741211,12.1253 45.9361211,6.6253 C45.6431211,12.1963 41.4271211,14.1933 41.4271211,14.1933 Z" fill="#FFFFFF"/></g></g></svg>

<svg width="48" height="48" viewBox="0 0 48 48" xmlns="http://www.w3.org/2000/svg"><g fill="none" fill-rule="evenodd"><path d="M0 0h48v48H0z"/><path d="M45.11 20.948c-.518.777-5.832 4.088-10.542 3.73 2.33 2.986 6.967 1.974 8.258 1.5-2.974 4.707-6.645 5.508-9.945 5.6l-.279.003c-2.028 0-4.148-.572-4.17-.578l-.89-.243-.315.87c-.86 2.394 1.516 4.012 3.612 5.437 1.684 1.147 3.427 2.332 3.323 3.582-.072.856-1.302 1.606-2.872.761 0 0-1.434 3.054-3.829.703-.542 1.621-2.334 2.663-3.462 2.746-1.128-.083-2.92-1.125-3.462-2.746-2.396 2.351-3.829-.703-3.829-.703-1.57.845-2.8.095-2.872-.76-.105-1.25 1.638-2.436 3.323-3.583 2.096-1.425 4.472-3.043 3.611-5.438l-.313-.869-.892.243c-.02.006-2.142.578-4.17.578l-.278-.004c-3.3-.09-6.972-.892-9.945-5.599 1.291.474 5.928 1.486 8.257-1.5-4.71.358-10.024-2.953-10.542-3.73-1.01-2.19-2.132-6.526-1.095-10.808 1.662 4.42 5.037 5.711 7.162 5.67-1.29-1.77-4.216-6.137-4.577-8.68-.2-1.407.513-2.594 1.177-3.365 1.088 2.66 2.903 5.213 5.401 7.627.262.258.533.514.814.768.34.306.661.585.972.848l.013.01c.264.224.523.438.774.636.32.254.367.57.415 1.345.037.603.08 1.287.444 1.95.563 1.017 1.655 1.991 2.911 1.793 1.2-.19 1.882-1.539 2.293-2.55 1.168-2.872 1.082-6.269-.192-9.089-.465-1.028-1.596-1.343-2.645-1.306l-1.27-.596c-.652-.306-1.256-.474-1.798-.5a7.04 7.04 0 0 1 .416-.015c.674 0 1.21-.345 1.683-.65.364-.234.708-.455 1.033-.455h.001c.471.015 1.09.203 1.743.402.518.157 1.075.326 1.66.443l.297.46c.747 1.147.982 2.713 1.37 4.007l1.152 3.833.958 3.186.958-3.186s2.048-6.814 2.138-7.125c.04-.137.235-.488.383-.716l.298-.459c.584-.117 1.141-.286 1.66-.443.653-.199 1.272-.387 1.765-.402.967 0 1.65 1.103 2.694 1.105.157.001.295.006.417.014-.543.027-1.146.195-1.799.501l-1.264.596c-1.05-.037-2.185.274-2.65 1.306-1.883 4.166-.772 8.457.433 10.324 1.301 2.014 3.511 1.451 4.578-.479.365-.662.407-1.346.444-1.949.048-.775.096-1.09.415-1.345a29.4 29.4 0 0 0 .773-.635v.001c.005-.004.01-.009.014-.01.31-.265.631-.544.972-.85l.096-.09c2.874-2.612 4.93-5.396 6.12-8.305.663.771 1.376 1.958 1.177 3.365-.362 2.543-3.286 6.91-4.577 8.68 2.125.041 5.5-1.25 7.162-5.67 1.037 4.282-.084 8.618-1.096 10.808m-3.683-6.755s2.786-4.116 3.184-6.923C45.058 4.117 42.013 2 42.013 2c-1.034 3.384-3.184 6.327-5.903 8.895l-.552.522c-.552.497-1.118.985-1.709 1.453-1.19.942-.49 2.467-1.114 3.594-.516.932-1.646 1.8-2.536.853-.824-.876-1.198-2.257-1.41-3.403a11.06 11.06 0 0 1 .23-5.064c.235-.81.458-1.735 1.362-1.98.778-.213 1.65.003 2.416.171 1.28.281.53 1.284.53 1.284.404.014.665-.302.756-.677.183-.759-1.145-1.542-1.145-1.542.775-.362 2.246-.8 2.724.25 1.294-2.259-.208-2.666-1.765-2.67-.824 0-1.587-1.105-2.696-1.105-1.908.061-3.558 1.248-5.462.94 0 0 .201.652.901.818 0 0-.394.604-.505.982-.09.31-2.136 7.117-2.136 7.117s-2.047-6.807-2.137-7.117c-.11-.378-.505-.982-.505-.982.7-.166.901-.819.901-.819-1.904.308-3.554-.878-5.406-.938-1.165 0-1.928 1.103-2.752 1.104-1.556.004-3.058.411-1.764 2.67.477-1.05 1.95-.612 2.723-.25 0 0-1.328.783-1.144 1.542.091.375.351.691.756.677 0 0-.75-1.003.53-1.284.917-.2 2.767-.676 3.287.473 1.125 2.492 1.22 5.497.27 8.062-.246.662-.619 1.626-1.26 2.018-.89.544-1.83-.398-2.236-1.13-.623-1.127.077-2.652-1.114-3.594a35.427 35.427 0 0 1-1.709-1.453A27.882 27.882 0 0 1 10.176 9.1C8.277 7.012 6.791 4.64 5.984 2c0 0-3.045 2.117-2.598 5.27.4 2.807 4.544 8.037 4.114 7.73-.43-.307-5.146-2.804-5.439-8.375-2.937 5.5-1.406 11.875-.063 14.776.522 1.128 6.375 4.125 9 4 0 0-4.068 1.603-8.27-1.75 1.538 3.55 3.95 6.88 7.683 8.288 2.99 1.128 6.365 1.033 9.418.23.858 2.385-3.278 4.227-4.719 5.318-.952.721-2.068 1.647-2.252 2.904-.28 1.92 1.711 3.046 3.388 2.447.693 1.248 2.564 2.006 3.917 1 1.443 2.984 6.227 2.985 7.672 0 1.352 1.006 3.223.248 3.917-1 1.644.588 3.614-.48 3.398-2.37-.147-1.293-1.295-2.248-2.263-2.98-1.44-1.092-5.577-2.934-4.718-5.32 3.05.808 6.43.898 9.417-.229 3.734-1.409 6.145-4.739 7.683-8.288-4.202 3.353-8.269 1.75-8.269 1.75 2.625.125 8.477-2.872 9-4 1.342-2.9 2.874-9.276-.064-14.776-.293 5.571-4.509 7.568-4.509 7.568z" fill="#FFF"/></g></svg>
